icons-rebrand/svg/battery-low-regular.svg

<svg width="32" height="32" viewBox="0 0 32 32" fill="none" xmlns="http://www.w3.org/2000/svg">
<path d="M25 6.25H11C9.74063 6.25132 8.53322 6.75219 7.6427 7.6427C6.75219 8.53322 6.25132 9.74063 6.25 11V12.25H5C4.2709 12.2508 3.57189 12.5408 3.05633 13.0563C2.54078 13.5719 2.25079 14.2709 2.25 15V17C2.25079 17.7291 2.54078 18.4281 3.05633 18.9437C3.57189 19.4592 4.2709 19.7492 5 19.75H6.25V21C6.25132 22.2594 6.75219 23.4668 7.6427 24.3573C8.53322 25.2478 9.74063 25.7487 11 25.75H25C26.2594 25.7487 27.4668 25.2478 28.3573 24.3573C29.2478 23.4668 29.7487 22.2594 29.75 21V11C29.7487 9.74063 29.2478 8.53322 28.3573 7.6427C27.4668 6.75219 26.2594 6.25132 25 6.25ZM6.25 18.25H5C4.66856 18.2497 4.35077 18.118 4.11641 17.8836C3.88205 17.6492 3.75026 17.3314 3.75 17V15C3.75026 14.6686 3.88205 14.3508 4.11641 14.1164C4.35077 13.882 4.66856 13.7503 5 13.75H6.25V18.25ZM28.25 21C28.2489 21.8616 27.9062 22.6877 27.2969 23.2969C26.6877 23.9062 25.8616 24.2489 25 24.25H11C10.1384 24.2489 9.31234 23.9062 8.70307 23.2969C8.09381 22.6877 7.75106 21.8616 7.75 21V11C7.75106 10.1384 8.09381 9.31234 8.70307 8.70307C9.31234 8.09381 10.1384 7.75106 11 7.75H25C25.8616 7.75106 26.6877 8.09381 27.2969 8.70307C27.9062 9.31234 28.2489 10.1384 28.25 11V21Z" fill="#0F0F0F"/>
<path d="M23 10.2639C22.8011 10.2639 22.6103 10.3429 22.4697 10.4836C22.329 10.6242 22.25 10.815 22.25 11.0139V21.0139C22.25 21.2128 22.329 21.4036 22.4697 21.5442C22.6103 21.6849 22.8011 21.7639 23 21.7639C23.1989 21.7639 23.3897 21.6849 23.5303 21.5442C23.671 21.4036 23.75 21.2128 23.75 21.0139V11.0139C23.75 10.815 23.671 10.6242 23.5303 10.4836C23.3897 10.3429 23.1989 10.2639 23 10.2639Z" fill="#0F0F0F"/>
</svg>

<svg width="32" height="32" viewBox="0 0 32 32" fill="none" xmlns="http://www.w3.org/2000/svg"><path d="M25 6.25H11A4.755 4.755 0 0 0 6.25 11v1.25H5A2.753 2.753 0 0 0 2.25 15v2A2.753 2.753 0 0 0 5 19.75h1.25V21A4.755 4.755 0 0 0 11 25.75h14A4.755 4.755 0 0 0 29.75 21V11A4.755 4.755 0 0 0 25 6.25zm-18.75 12H5A1.251 1.251 0 0 1 3.75 17v-2A1.251 1.251 0 0 1 5 13.75h1.25v4.5zm22 2.75A3.254 3.254 0 0 1 25 24.25H11A3.254 3.254 0 0 1 7.75 21V11A3.254 3.254 0 0 1 11 7.75h14A3.254 3.254 0 0 1 28.25 11v10z" fill="#0F0F0F"/><path d="M23 10.264a.75.75 0 0 0-.75.75v10a.75.75 0 0 0 1.5 0v-10a.75.75 0 0 0-.75-.75z" fill="#0F0F0F"/></svg>
